projects/ccf-eui/src/assets/icons/organ-icons/organ-icon-spleen.svg

<svg width="64" height="64" viewBox="0 0 64 64" fill="currentColor" xmlns="http://www.w3.org/2000/svg">
<g clip-path="url(#clip0_1795_429)">
<path d="M47.5946 22.6347C39.296 5.67466 25.0026 7.12533 20.544 10.6667C16.0853 14.208 13.9306 18.1547 15.296 23.68C16.1493 27.072 20.0533 28.8427 23.3173 31.2107C22.4553 32.3643 21.9442 33.742 21.8453 35.1787C20.71 36.3266 19.3812 37.2654 17.92 37.952C15.905 38.697 13.846 39.3169 11.7546 39.808L13.184 42.9653C15.1618 42.4922 17.1014 41.8718 18.9866 41.1093C20.5394 40.3322 21.9756 39.3412 23.2533 38.1653C24.7533 39.3443 26.642 39.9155 28.544 39.7653C29.2906 43.8827 28.992 48.2987 30.2293 51.328C31.936 55.5947 36.8853 55.744 40.5973 55.0827C48.32 53.7173 55.8933 39.5947 47.5946 22.6347ZM33.9413 35.136C33.3653 35.456 32.512 35.904 31.5946 36.3093C31.2102 34.9685 30.6354 33.6897 29.888 32.512C29.3978 31.7695 28.8635 31.0571 28.288 30.3787C29.3006 29.8736 30.3404 29.4249 31.4026 29.0347C31.9008 29.7044 32.3364 30.4185 32.704 31.168C33.302 32.4255 33.7186 33.7615 33.9413 35.136ZM29.6746 27.3493C28.8426 27.6693 27.6906 28.1387 26.6026 28.672C25.4836 27.6627 24.2084 26.8414 22.8266 26.24C23.9739 25.893 25.1853 25.8125 26.3683 26.0048C27.5514 26.197 28.6749 26.6569 29.6533 27.3493H29.6746ZM24.2346 35.8827C24.1818 34.7827 24.5564 33.7049 25.28 32.8747C25.996 33.5639 26.607 34.3546 27.0933 35.2213C27.4233 35.8667 27.7015 36.5373 27.9253 37.2267C25.8346 37.2693 24.448 36.5013 24.2133 35.904L24.2346 35.8827ZM32.1493 38.592L34.1333 37.5893C34.1061 39.5894 33.4657 41.5329 32.2986 43.1573C32.4361 41.6416 32.3787 40.1145 32.128 38.6133L32.1493 38.592Z" />
</g>
<defs>
<clipPath id="clip0_1795_429">
<rect width="64" height="64" />
</clipPath>
</defs>
</svg>

<svg xmlns="http://www.w3.org/2000/svg" width="64" height="64" fill="currentColor" viewBox="0 0 64 64"><g clip-path="url(#a)"><path d="M47.595 22.635c-8.299-16.96-22.592-15.51-27.051-11.968s-6.613 7.488-5.248 13.013c.853 3.392 4.757 5.163 8.021 7.53a7.5 7.5 0 0 0-1.472 3.969 13.7 13.7 0 0 1-3.925 2.773 52 52 0 0 1-6.165 1.856l1.429 3.157a41 41 0 0 0 5.803-1.856 18.6 18.6 0 0 0 4.266-2.944 7.6 7.6 0 0 0 5.291 1.6c.747 4.118.448 8.534 1.685 11.563 1.707 4.267 6.656 4.416 10.368 3.755 7.723-1.366 15.296-15.488 6.998-32.448M33.94 35.136c-.576.32-1.429.768-2.346 1.173-.385-1.34-.96-2.62-1.707-3.797a22 22 0 0 0-1.6-2.133 31 31 0 0 1 3.115-1.344c.498.67.933 1.384 1.301 2.133a14.7 14.7 0 0 1 1.237 3.968m-4.266-7.787c-.832.32-1.984.79-3.072 1.323a14 14 0 0 0-3.776-2.432 7.87 7.87 0 0 1 6.826 1.11zm-5.44 8.534a4.27 4.27 0 0 1 1.045-3.008c.716.689 1.327 1.48 1.813 2.346q.495.97.832 2.006c-2.09.042-3.477-.726-3.712-1.323zm7.914 2.709 1.984-1.003a9.77 9.77 0 0 1-1.834 5.568c.137-1.515.08-3.042-.171-4.544z"/></g><defs><clipPath id="a"><path d="M0 0h64v64H0z"/></clipPath></defs></svg>
